SVG_Azure_All/Blockchain Data Manager.svg

<?xml version="1.0" encoding="UTF-8" standalone="no"?>
<!-- Generated by Microsoft Visio, SVG Export Blockchain Data Manager.svg Page-1 -->

<svg
   xmlns:dc="http://purl.org/dc/elements/1.1/"
   xmlns:cc="http://creativecommons.org/ns#"
   xmlns:rdf="http://www.w3.org/1999/02/22-rdf-syntax-ns#"
   xmlns:svg="http://www.w3.org/2000/svg"
   xmlns="http://www.w3.org/2000/svg"
   xmlns:sodipodi="http://sodipodi.sourceforge.net/DTD/sodipodi-0.dtd"
   xmlns:inkscape="http://www.inkscape.org/namespaces/inkscape"
   width="0.78756565in"
   height="0.66923285in"
   viewBox="0 0 56.704543 48.185013"
   xml:space="preserve"
   class="st7"
   version="1.1"
   id="svg44"
   sodipodi:docname="Blockchain Data Manager.svg"
   style="font-size:12px;overflow:visible;color-interpolation-filters:sRGB;fill:none;fill-rule:evenodd;stroke-linecap:square;stroke-miterlimit:3"
   inkscape:version="0.92.5 (2060ec1f9f, 2020-04-08)"><metadata
   id="metadata50"><rdf:RDF><cc:Work
       rdf:about=""><dc:format>image/svg+xml</dc:format><dc:type
         rdf:resource="http://purl.org/dc/dcmitype/StillImage" /></cc:Work></rdf:RDF></metadata><defs
   id="defs48" /><sodipodi:namedview
   pagecolor="#ffffff"
   bordercolor="#666666"
   borderopacity="1"
   objecttolerance="10"
   gridtolerance="10"
   guidetolerance="10"
   inkscape:pageopacity="0"
   inkscape:pageshadow="2"
   inkscape:window-width="640"
   inkscape:window-height="480"
   id="namedview46"
   showgrid="false"
   inkscape:zoom="1.5231781"
   inkscape:cx="37.799863"
   inkscape:cy="32.109853"
   inkscape:window-x="0"
   inkscape:window-y="0"
   inkscape:window-maximized="0"
   inkscape:current-layer="svg44" />
	<style
   type="text/css"
   id="style2">
	<![CDATA[
		.st1 {fill:#773adc;stroke:none;stroke-linecap:butt;stroke-width:34}
		.st2 {fill:#b796f9;stroke:none;stroke-linecap:butt;stroke-width:34}
		.st3 {fill:#a67af4;stroke:none;stroke-linecap:butt;stroke-width:34}
		.st4 {fill:#552f99;stroke:none;stroke-linecap:butt;stroke-width:34}
		.st5 {fill:#50e6ff;stroke:none;stroke-linecap:butt;stroke-width:34}
		.st6 {fill:#32bedd;stroke:none;stroke-linecap:butt;stroke-width:34}
		.st7 {fill:none;fill-rule:evenodd;font-size:12px;overflow:visible;stroke-linecap:square;stroke-miterlimit:3}
	]]>
	</style>

	<g
   id="g42"
   transform="translate(-34.000478,-34)">
		<title
   id="title4">Page-1</title>
		<g
   id="group7264-1"
   transform="translate(34.0032,-34.0157)">
			<title
   id="title6">Blockchain Data Manager</title>
			<g
   id="group7265-2">
				<title
   id="title8"> Icon-Icon-208</title>
				<g
   id="shape7266-3"
   transform="translate(26.7185,-8.56383)">
					<title
   id="title10">Sheet.7266</title>
					<path
   d="m 16.85,86.5 v 19.75 L 0,116.2 V 96.39 Z"
   class="st1"
   id="path12"
   inkscape:connector-curvature="0"
   style="fill:#773adc;stroke:none;stroke-width:34;stroke-linecap:butt" />
				</g>
				<g
   id="shape7267-5"
   transform="translate(9.83188,-28.3443)">
					<title
   id="title15">Sheet.7267</title>
					<path
   d="M 33.74,106.28 16.89,116.2 0,106.28 16.89,96.36 Z"
   class="st2"
   id="path17"
   inkscape:connector-curvature="0"
   style="fill:#b796f9;stroke:none;stroke-width:34;stroke-linecap:butt" />
				</g>
				<g
   id="shape7268-7"
   transform="translate(9.83188,-8.56383)">
					<title
   id="title20">Sheet.7268</title>
					<path
   d="M 16.89,96.42 V 116.2 L 0,106.25 V 86.5 Z"
   class="st3"
   id="path22"
   inkscape:connector-curvature="0"
   style="fill:#a67af4;stroke:none;stroke-width:34;stroke-linecap:butt" />
				</g>
				<g
   id="shape7269-9"
   transform="translate(31.2194,-17.7155)">
					<title
   id="title25">Sheet.7269</title>
					<path
   d="m 3.99,105.64 c 2.23,-1.28 4.02,-0.26 4.02,2.31 a 8.84231,8.89479 0 0 1 -3.99,6.97 C 1.79,116.2 0,115.18 0,112.61 a 8.84231,8.89479 0 0 1 3.99,-6.97 z"
   class="st4"
   id="path27"
   inkscape:connector-curvature="0"
   style="fill:#552f99;stroke:none;stroke-width:34;stroke-linecap:butt" />
				</g>
				<g
   id="shape7270-11"
   transform="translate(34.3477,-21.4083)">
					<title
   id="title30">Sheet.7270</title>
					<path
   d="M 12.07,116.2 H 2.01 a 2.01107,2.023 0 0 1 0,-4.04 h 10.06 a 6.57587,6.6149 -180 0 0 6.38,-6.84 6.57587,6.6149 -180 0 0 -6.38,-6.87 2.0130582,2.025 0 0 1 0,-4.05 10.5661,10.6288 0 0 1 10.28,10.92 10.5661,10.6288 0 0 1 -10.28,10.88 z"
   class="st5"
   id="path32"
   inkscape:connector-curvature="0"
   style="fill:#50e6ff;stroke:none;stroke-width:34;stroke-linecap:butt" />
				</g>
				<g
   id="shape7271-13">
					<title
   id="title35">Sheet.7271</title>
					<path
   d="m 37.73,107.77 -7.76,-7.8 a 0.414982,0.417445 -180 0 0 -0.638434,0 l 0.0084,6 H 10.18 A 6.57587,6.6149 0 0 1 3.8,99.1 6.60779,6.64701 0 0 1 9.83,92.32 V 88.28 A 10.6299,10.693 -180 0 0 0,99.16 10.598,10.6609 -180 0 0 10.28,110.08 h 19.15 v 5.97 a 0.414982,0.417445 -180 0 0 0.638434,0 L 37.73,108.19 a 0.351139,0.353223 -180 0 0 0,-0.41745 z"
   class="st6"
   id="path37"
   inkscape:connector-curvature="0"
   style="fill:#32bedd;stroke:none;stroke-width:34;stroke-linecap:butt" />
				</g>
			</g>
		</g>
	</g>
</svg>

<?xml version="1.0" encoding="UTF-8" standalone="no"?>
<!DOCTYPE svg PUBLIC "-//W3C//DTD SVG 1.1//EN" "http://www.w3.org/Graphics/SVG/1.1/DTD/svg11.dtd">
<!-- Generated by Microsoft Visio, SVG Export Blockchain Data Manager.svg Page-1 -->
<svg xmlns="http://www.w3.org/2000/svg" xmlns:xlink="http://www.w3.org/1999/xlink" xmlns:ev="http://www.w3.org/2001/xml-events"
		width="1.73195in" height="1.61395in" viewBox="0 0 124.7 116.205" xml:space="preserve" color-interpolation-filters="sRGB"
		class="st7">
	<style type="text/css">
	<![CDATA[
		.st1 {fill:#773adc;stroke:none;stroke-linecap:butt;stroke-width:34}
		.st2 {fill:#b796f9;stroke:none;stroke-linecap:butt;stroke-width:34}
		.st3 {fill:#a67af4;stroke:none;stroke-linecap:butt;stroke-width:34}
		.st4 {fill:#552f99;stroke:none;stroke-linecap:butt;stroke-width:34}
		.st5 {fill:#50e6ff;stroke:none;stroke-linecap:butt;stroke-width:34}
		.st6 {fill:#32bedd;stroke:none;stroke-linecap:butt;stroke-width:34}
		.st7 {fill:none;fill-rule:evenodd;font-size:12px;overflow:visible;stroke-linecap:square;stroke-miterlimit:3}
	]]>
	</style>

	<g>
		<title>Page-1</title>
		<g id="group7096-1" transform="translate(34.0032,-34.0157)">
			<title>Blockchain Data Manager</title>
			<g id="group7097-2">
				<title> Icon-Icon-208</title>
				<g id="shape7098-3" transform="translate(26.7185,-8.56383)">
					<title>Sheet.7098</title>
					<path d="M16.85 86.5 L16.85 106.25 L0 116.2 L0 96.39 L16.85 86.5 Z" class="st1"/>
				</g>
				<g id="shape7099-5" transform="translate(9.83188,-28.3443)">
					<title>Sheet.7099</title>
					<path d="M33.74 106.28 L16.89 116.2 L0 106.28 L16.89 96.36 L33.74 106.28 Z" class="st2"/>
				</g>
				<g id="shape7100-7" transform="translate(9.83188,-8.56383)">
					<title>Sheet.7100</title>
					<path d="M16.89 96.42 L16.89 116.2 L0 106.25 L0 86.5 L16.89 96.42 Z" class="st3"/>
				</g>
				<g id="shape7101-9" transform="translate(31.2194,-17.7155)">
					<title>Sheet.7101</title>
					<path d="M3.99 105.64 C6.22 104.36 8.01 105.38 8.01 107.95 A8.84231 8.89479 0 0 1 4.02 114.92 C1.79 116.2 0 115.18
								 0 112.61 A8.84231 8.89479 0 0 1 3.99 105.64 Z" class="st4"/>
				</g>
				<g id="shape7102-11" transform="translate(34.3477,-21.4083)">
					<title>Sheet.7102</title>
					<path d="M12.07 116.2 L2.01 116.2 A2.01107 2.023 0 0 1 2.01 112.16 L12.07 112.16 A6.57587 6.6149 -180 0 0 18.45
								 105.32 A6.57587 6.6149 -180 0 0 12.07 98.45 A2.01107 2.023 0 0 1 12.07 94.4 A10.5661 10.6288 0 0
								 1 22.35 105.32 A10.5661 10.6288 0 0 1 12.07 116.2 Z" class="st5"/>
				</g>
				<g id="shape7103-13">
					<title>Sheet.7103</title>
					<path d="M37.73 107.77 L29.97 99.97 a0.414982 0.417445 -180 0 0 -0.638434 -5.68434E-14 L29.34 105.97 L10.18 105.97
								 A6.57587 6.6149 0 0 1 3.8 99.1 A6.60779 6.64701 0 0 1 9.83 92.32 L9.83 88.28 A10.6299 10.693 -180
								 0 0 0 99.16 A10.598 10.6609 -180 0 0 10.28 110.08 L29.43 110.08 L29.43 116.05 a0.414982 0.417445
								 -180 0 0 0.638434 8.52651E-14 L37.73 108.19 a0.351139 0.353223 -180 0 0 -2.13163E-14 -0.417445 Z"
							class="st6"/>
				</g>
			</g>
		</g>
	</g>
</svg>
